assets/img/layout/linkedin.svg

<svg viewBox="0 0 512 512" xmlns="http://www.w3.org/2000/svg"><path d="m76.8 0h358.4a76.82 76.82 0 0 1 76.8 76.8v358.4a76.82 76.82 0 0 1 -76.8 76.8h-358.4a76.82 76.82 0 0 1 -76.8-76.8v-358.4a76.82 76.82 0 0 1 76.8-76.8z" fill="#231f20" opacity=".5"/><g fill="#fff"><circle cx="142" cy="138" r="37"/><path d="m244 194v198m-102-198v198" stroke="#fff" stroke-width="66"/><path d="m276 282c0-20 13-40 36-40 24 0 33 18 33 45v105h66v-113c0-61-32-89-76-89-34 0-51 19-59 32"/></g></svg>

<svg id="Layer_1" data-name="Layer 1" xmlns="http://www.w3.org/2000/svg" viewBox="0 0 512 512"><defs><style>.cls-1{fill:#231f20;opacity:0.5;isolation:isolate;}.cls-2,.cls-3{fill:#fff;}.cls-3{stroke:#fff;stroke-width:66px;}</style></defs><title>linkedin</title><path class="cls-1" d="M76.8,0H435.2A76.82,76.82,0,0,1,512,76.8V435.2A76.82,76.82,0,0,1,435.2,512H76.8A76.82,76.82,0,0,1,0,435.2V76.8A76.82,76.82,0,0,1,76.8,0Z" transform="translate(0 0)"/><circle class="cls-2" cx="142" cy="138" r="37"/><path class="cls-3" d="M244,194V392M142,194V392" transform="translate(0 0)"/><path class="cls-2" d="M276,282c0-20,13-40,36-40,24,0,33,18,33,45V392h66V279c0-61-32-89-76-89-34,0-51,19-59,32" transform="translate(0 0)"/></svg>
